X:1
T:The Kings Of Kerry
R:slide
M:12/8
L:1/8
K:A
A2B|:c2c cBA F2A E2A|F2A EAc B2B BAB|
|c2c cBA F2A E2c|1 ecA BcB A2A A2B:|2 ecA BcB A2A efg|]
|a2a afe f2a e2B|c2c cBA B2B Bce|
|a2a afe f2a e2c|ecA BcB A2A efg|
|a2a afe f2a e2B|c2c cBA B2B BAB|
|c2c cBA F2A E2c|ecA BcB A2A A2B|